assets/images/svg/offer.svg

<svg width="24" height="24" viewBox="0 0 24 24" fill="none" xmlns="http://www.w3.org/2000/svg">
<path d="M3.99085 14.6599L2.47086 13.1399C1.85086 12.5199 1.85086 11.4999 2.47086 10.8799L3.99085 9.3599C4.25085 9.0999 4.46085 8.58989 4.46085 8.22989V6.07987C4.46085 5.19987 5.18086 4.47989 6.06086 4.47989H8.21085C8.57085 4.47989 9.08085 4.26992 9.34085 4.00992L10.8608 2.4899C11.4808 1.8699 12.5009 1.8699 13.1209 2.4899L14.6409 4.00992C14.9009 4.26992 15.4108 4.47989 15.7708 4.47989H17.9209C18.8009 4.47989 19.5208 5.19987 19.5208 6.07987V8.22989C19.5208 8.58989 19.7308 9.0999 19.9908 9.3599L21.5109 10.8799C22.1309 11.4999 22.1309 12.5199 21.5109 13.1399L19.9908 14.6599C19.7308 14.9199 19.5208 15.43 19.5208 15.79V17.9399C19.5208 18.8199 18.8009 19.54 17.9209 19.54H15.7708C15.4108 19.54 14.9009 19.7499 14.6409 20.0099L13.1209 21.5299C12.5009 22.1499 11.4808 22.1499 10.8608 21.5299L9.34085 20.0099C9.08085 19.7499 8.57085 19.54 8.21085 19.54H6.06086C5.18086 19.54 4.46085 18.8199 4.46085 17.9399V15.79C4.46085 15.42 4.25085 14.9099 3.99085 14.6599Z" stroke="#808B97" stroke-width="1.5" stroke-linecap="round" stroke-linejoin="round"/>
<path d="M9 15L15 9" stroke="#808B97" stroke-width="1.5" stroke-linecap="round" stroke-linejoin="round"/>
<path d="M14.4945 14.5H14.5035" stroke="#808B97" stroke-width="2" stroke-linecap="round" stroke-linejoin="round"/>
<path d="M9.49451 9.5H9.50349" stroke="#808B97" stroke-width="2" stroke-linecap="round" stroke-linejoin="round"/>
</svg>

<svg xmlns="http://www.w3.org/2000/svg" width="24" height="24" fill="none" viewBox="0 0 24 24"><path stroke="#808b97" stroke-linecap="round" stroke-linejoin="round" stroke-width="1.5" d="m3.99 14.66-1.52-1.52c-.62-.62-.62-1.64 0-2.26l1.52-1.52c.26-.26.47-.77.47-1.13V6.08c0-.88.72-1.6 1.6-1.6h2.15c.36 0 .87-.21 1.13-.47l1.52-1.52c.62-.62 1.64-.62 2.26 0l1.52 1.52c.26.26.77.47 1.13.47h2.15c.88 0 1.6.72 1.6 1.6v2.15c0 .36.21.87.47 1.13l1.52 1.52c.62.62.62 1.64 0 2.26l-1.52 1.52c-.26.26-.47.77-.47 1.13v2.15c0 .88-.72 1.6-1.6 1.6h-2.15c-.36 0-.87.21-1.13.47l-1.52 1.52c-.62.62-1.64.62-2.26 0l-1.52-1.52c-.26-.26-.77-.47-1.13-.47H6.06c-.88 0-1.6-.72-1.6-1.6v-2.15c0-.37-.21-.88-.47-1.13M9 15l6-6"/><path stroke="#808b97" stroke-linecap="round" stroke-linejoin="round" stroke-width="2" d="M14.495 14.5h.009M9.495 9.5h.008"/></svg>
